static/logos/usersnap-glyph-color.svg

<svg width="50" height="50" viewBox="0 0 50 50" fill="none" xmlns="http://www.w3.org/2000/svg">
<g clip-path="url(#clip0_1_477)">
<path d="M38.0086 19.8482C38.2971 20.5321 38.5317 21.2376 38.7103 21.9582C38.7782 22.2349 38.8378 22.5135 38.889 22.7939C40.2836 30.4393 35.2229 37.7687 27.5857 39.1646C20.8753 40.4032 14.1397 36.5232 11.8377 30.0922C11.5415 29.2628 11.3222 28.4078 11.1821 27.5383C11.1295 27.1881 11.2231 26.8315 11.441 26.5525C11.879 25.9918 12.6881 25.8926 13.2483 26.3311C14.4289 27.2528 15.749 27.9796 17.1587 28.4843C24.4667 31.1 32.5092 27.2901 35.1222 19.9744C35.5999 18.6394 37.4599 18.5415 38.0086 19.8482ZM24.9742 50C11.1813 50 0 38.8071 0 25C0 11.1929 11.1813 0 24.9742 0C38.7669 0 49.9482 11.1929 49.9482 25C49.9482 38.8071 38.7669 50 24.9742 50ZM24.9742 44.7579C35.8749 44.7579 44.7117 35.9121 44.7117 25C44.7117 14.0879 35.8749 5.24201 24.9742 5.24201C14.0733 5.24201 5.23658 14.0879 5.23658 25C5.23658 35.9121 14.0733 44.7579 24.9742 44.7579Z" fill="#3A21CE"/>
</g>
<defs>
<clipPath id="clip0_1_477">
<rect width="50" height="50" fill="white"/>
</clipPath>
</defs>
</svg>

<svg xmlns="http://www.w3.org/2000/svg" width="64" height="64" fill="none" viewBox="0 0 50 50"><g clip-path="url(#a)"><path fill="#3A21CE" d="M38.009 19.848a14.246 14.246 0 0 1 .88 2.946c1.395 7.645-3.666 14.975-11.303 16.37-6.71 1.24-13.446-2.64-15.748-9.072a14.409 14.409 0 0 1-.656-2.554 1.287 1.287 0 0 1 2.066-1.207 14.05 14.05 0 0 0 3.91 2.153c7.309 2.616 15.351-1.194 17.964-8.51.478-1.335 2.338-1.433 2.887-.126ZM24.974 50C11.181 50 0 38.807 0 25S11.181 0 24.974 0c13.793 0 24.974 11.193 24.974 25S38.767 50 24.974 50Zm0-5.242c10.9 0 19.738-8.846 19.738-19.758 0-10.912-8.837-19.758-19.738-19.758-10.9 0-19.737 8.846-19.737 19.758 0 10.912 8.836 19.758 19.737 19.758Z"/></g><defs><clipPath id="a"><path fill="#fff" d="M0 0h50v50H0z"/></clipPath></defs></svg>
